X: 12937
T: Fiddler's Chair, The
R: reel
M: 4/4
K: Gmajor
edBA BG~G2|DEFG ABcA|GEED E2DE|1 GBAF G2Bd:|
edef ~g3a|~g3e dBBA|GEED E2DE|GBAF GABd|
edef ~g3a|~g3e dBBe|degb a2ga|bgaf gbgf||

